!!!!SEGMENT: pl-sa--372-a-viii-12--003_anonim--plancti-umarll-na-krzylzu.krn
!!!cenid: 17xx:1709
!!!COM: Anonim
!!!COM-rismID: pe30004985
!!!CDT:
!!!CNT:
!!!GTL: Plancti
!!!OTL: Umarł na krzyżu
!!!PDT:
!!!AGN:
!!!SMS-siglum: PL-SA
!!!SMS-shelfmark: 372/A VIII 12
!!!SMS-shelfwork: 003 G
!!!SMS-variant:
!!!SMS-altvar:
!!!NIFC-rismSourceID: 1001041679
!!!NIFC-rismChildID: 1001041679
!!!NIFC-islandoraID: none
!!!URL-pdf-islandora:
!!!URL-scan: https://bc.bdsandomierz.pl/dlibra/publication/1676/edition/1644/content @EN{Scan in the Sandomierz Diocese Digital Library} @PL{Skany w portalu Cyfrowa Biblioteka Diecezjalna w Sandomierzu}
!!!ONB-nifc: UWAGA: Planctus Trzeci
!!!AIN: 1 organ 1 soprn 1 tenor 2 violn
!!!key: e:phr
**kern	**fba	**kern	**kern	**kern	**text	**text	**text	**text	**text	**text	**text	**text	**text	**text	**kern	**text	**text	**text	**text	**text	**text	**text	**text	**text	**text
*group3	*	*group2	*group2	*group1	*	*	*	*	*	*	*	*	*	*	*group1	*	*	*	*	*	*	*	*	*	*
*part5	*part5	*part4	*part3	*part2	*part2	*part2	*part2	*part2	*part2	*part2	*part2	*part2	*part2	*part2	*part1	*part1	*part1	*part1	*part1	*part1	*part1	*part1	*part1	*part1	*part1
*staff5	*	*staff4	*staff3	*staff2	*staff2	*staff2	*staff2	*staff2	*staff2	*staff2	*staff2	*staff2	*staff2	*staff2	*staff1	*staff1	*staff1	*staff1	*staff1	*staff1	*staff1	*staff1	*staff1	*staff1	*staff1
*I"[Organo]	*	*I"Violino 2do	*I"Violino 1mo	*I"Tenore 1mo.	*	*	*	*	*	*	*	*	*	*	*I"Canto 1mo.	*	*	*	*	*	*	*	*	*	*
*I'[Org]	*	*I'[Vl 2]	*I'[Vl 1]	*I'[T 1]	*	*	*	*	*	*	*	*	*	*	*I'[S 1]	*	*	*	*	*	*	*	*	*	*
*Iorgan	*	*Ivioln	*Ivioln	*Itenor	*	*	*	*	*	*	*	*	*	*	*Isoprn	*	*	*	*	*	*	*	*	*	*
*ICklav	*	*ICstr	*ICstr	*ICvox	*	*	*	*	*	*	*	*	*	*	*ICvox	*	*	*	*	*	*	*	*	*	*
*IGcont	*	*IGacmp	*IGacmp	*IGoro	*	*	*	*	*	*	*	*	*	*	*IGcoro	*	*	*	*	*	*	*	*	*	*
*clefF4	*	*clefG2	*clefG2	*clefC4	*	*	*	*	*	*	*	*	*	*	*clefG2	*	*	*	*	*	*	*	*	*	*
*k[f#]	*	*k[f#]	*k[f#]	*k[f#c#]	*	*	*	*	*	*	*	*	*	*	*k[]	*	*	*	*	*	*	*	*	*	*
*e:phr	*	*e:phr	*e:phr	*e:phr	*	*	*	*	*	*	*	*	*	*	*e:phr	*	*	*	*	*	*	*	*	*	*
*M2/2	*	*M2/2	*M2/2	*M2/2	*	*	*	*	*	*	*	*	*	*	*M2/2	*	*	*	*	*	*	*	*	*	*
*met(C|)	*	*met(C|)	*met(C|)	*met(C|)	*	*	*	*	*	*	*	*	*	*	*met(C|)	*	*	*	*	*	*	*	*	*	*
*>[A,A,A,A,A,A,A,A,A,A,B,B,B,B,B]	*	*>[A,A,A,A,A,A,A,A,A,A,B,B,B,B,B]	*>[A,A,A,A,A,A,A,A,A,A,B,B,B,B,B]	*>[A,A,A,A,A,A,A,A,A,A,B,B,B,B,B]	*	*	*	*	*	*	*	*	*	*	*>[A,A,A,A,A,A,A,A,A,A,B,B,B,B,B]	*	*	*	*	*	*	*	*	*	*
=1	=1	=1	=1	=1	=1	=1	=1	=1	=1	=1	=1	=1	=1	=1	=1	=1	=1	=1	=1	=1	=1	=1	=1	=1	=1
*>A	*	*>A	*>A	*>A	*	*	*	*	*	*	*	*	*	*	*>A	*	*	*	*	*	*	*	*	*	*
*2\right	*	*	*	*2\right	*	*	*	*	*	*	*	*	*	*	*2\right	*	*	*	*	*	*	*	*	*	*
!LO:TX:b:t=Umarł na Krzyzu	!	!LO:TX:a:t=Tacet	!LO:TX:a:t=Tacet	!	!	!	!	!	!	!	!	!	!	!	!	!	!	!	!	!	!	!	!	!	!
2E\	8	1ryy	1ryy	2e\	U-	Sro-	O	Wzdy	A	Dla	O	Wzdy	Czos	U-	2ee\	U-	Sro-	O	Wzdy	A	Dla	O	Wzdy	Czoś	U-
4E\	3	.	.	4e\	-marł	-gim	Du-	cie	za	two-	du-	cię	da-	-mar-	4gg\	-marł	-giem	du-	cie	za	two-	du-	cię	da-	-mar-
!	!	!	!	!LO:N:acc=#	!	!	!	!	!	!	!	!	!	!	!	!	!	!	!	!	!	!	!	!	!
!	!	!	!	!LO:TX:a:t=P:problem=# above	!	!	!	!	!	!	!	!	!	!	!	!	!	!	!	!	!	!	!	!	!
4BB/	7	.	.	4Bn\	na	o-	-ſzo	niech	nie-	-ich	-szo	niech	-ley	-łes	4ff#\	na	O-	-ſzo	niech	nie-	-ich	-ſzo	niech	-ley	-łeś
=2	=2	=2	=2	=2	=2	=2	=2	=2	=2	=2	=2	=2	=2	=2	=2	=2	=2	=2	=2	=2	=2	=2	=2	=2	=2
2C/	7	1ryy	1ryy	(>4B\	krzy-	-szcze-	mo-	wzru-	-wi-	zbyt-	grzesz-	zru-	po-	wez-	2ee\	krzÿ-	-ſzcze-	mo-	wzru-	-wi-	zbyt-	grzeſz-	wzru-	po-	wez-
.	6	.	.	4A\)	.	.	.	.	.	.	.	.	.	.	.	.	.	.	.	.	.	.	.	.	.
!	!	!	!	!LO:N:acc=#	!	!	!	!	!	!	!	!	!	!	!	!	!	!	!	!	!	!	!	!	!
!	!	!	!	!LO:TX:a:t=P:problem=# above	!	!	!	!	!	!	!	!	!	!	!LO:SIC:v:l:s:t=-ia	!	!	!	!	!	!	!	!	!	!
2BB/	#	.	.	2Bn\	-zu	-pem	-ia	-ſzy	-dzisz	-kow	-na	-ſzy	-cznę	-me	2dd#X\	-zu	-pem	-ią	-ſzy	-dzis	-kow	-na	-ſzy	-cznę	-miey
=3	=3	=3	=3	=3	=3	=3	=3	=3	=3	=3	=3	=3	=3	=3	=3	=3	=3	=3	=3	=3	=3	=3	=3	=3	=3
4.GG/	.	1ryy	1ryy	4.B\	o-	Bok	Du-	ta	Ja-	pod-	Du-	ta	moy	nedz-	4.gg\	o-	bok	du-	ta	ia-	pod-	du-	ta	moy	nedz-
8GG/	.	.	.	8B\	-krut-	ma-	-szo	po-	-kie	-ie-	-szo	po-	Je-	-ne-	8gg\	-krut-	ma-	-ſzo	po-	-kie	-ie-	-ſzo	po-	Je-	-ne-
4AA/	.	.	.	4c#\	-nie	-iąc	za-	-ſtac	twe	-ło	za-	-stac	-zu	-go	4aa\	-nie	-iąc	za-	-ſtac	twe	-ło	za-	-ſtac	-zu	-go
8BB/L	.	.	.	4B\	ros-	ros-	-twar-	ſczer-	ko-	ka-	-ka-	zbo-	bez	do	4gg\	roſ-	roſ-	-twar-	ſczer-	ko-	ka-	-ka-	zbo-	bez	do
8C/J	.	.	.	.	.	.	.	.	.	.	.	.	.	.	.	.	.	.	.	.	.	.	.	.	.
=4	=4	=4	=4	=4	=4	=4	=4	=4	=4	=4	=4	=4	=4	=4	=4	=4	=4	=4	=4	=4	=4	=4	=4	=4	=4
4D/	4	1ryy	1ryy	2A\	-pię-	-cię-	-dzia-	-nia-	-cha-	-ra-	-mia-	-la-	cie-	sie-	4gg\	-pię-	-cie-	-dzia-	-nia-	-cha-	-ra-	-mia-	-la-	Cie-	ſie-
4D/	3	.	.	.	.	.	.	.	.	.	.	.	.	.	4ff#\	.	.	.	.	.	.	.	.	.	.
2GG/	.	.	.	2B\	-ty	-ty	-ła	-ła	-nie	-nie	-ła	-ła	-bie	-bie	2gg\	-ty	-ty	-ła	-ła	-nie	-nie	-ła	-ła	-bie	-bie
=5:|!|:	=5:|!|:	=5:|!|:	=5:|!|:	=5:|!|:	=5:|!|:	=5:|!|:	=5:|!|:	=5:|!|:	=5:|!|:	=5:|!|:	=5:|!|:	=5:|!|:	=5:|!|:	=5:|!|:	=5:|!|:	=5:|!|:	=5:|!|:	=5:|!|:	=5:|!|:	=5:|!|:	=5:|!|:	=5:|!|:	=5:|!|:	=5:|!|:	=5:|!|:
*>B	*	*>B	*>B	*>B	*	*	*	*	*	*	*	*	*	*	*>B	*	*	*	*	*	*	*	*	*	*
2D/	3:	1ryy	1ryy	2A/	I	.	Je-	.	Patrz	.	Je-	.	Życ	.	2ff#\	I	.	Je-	.	Patrz	.	Je-	.	Zyc	.
4D/	.	.	.	4A/	tu	.	-zu-	.	ie-	.	-zu-	.	tu	.	4ff#\	tu	.	-zu-	.	ie-	.	-zu-	.	tu	.
4D/	.	.	.	4A/	zos-	.	-sa	.	-no	.	-sa	.	nie	.	4ff#\	zos-	.	-ſa	.	-no	.	-ſa	.	nie	.
=6	=6	=6	=6	=6	=6	=6	=6	=6	=6	=6	=6	=6	=6	=6	=6	=6	=6	=6	=6	=6	=6	=6	=6	=6	=6
4G\	8:	1ryy	1ryy	4B\	-ta-	.	twe-	.	na	.	twe-	.	mo-	.	4gg\	-ta-	.	twe-	.	na	.	twe-	.	mo-	.
4E\	.	.	.	4B\	-wił	.	-go	.	cia-	.	-go	.	-gę	.	4gg\	-wił	.	-go	.	cia-	.	-go	.	-gę	.
4F#\	8	.	.	4A#X/	Cia-	.	wzdy	.	-ło	.	[wzdy]	.	gdyz	.	4ff#X\	Cia-	.	wzdy	.	-ło	.	wzdy	.	gdyſz	.
4F#\	3	.	.	4A#/	-ło	.	we-	.	po-	.	we-	.	ty	.	4ee\	-ło	.	we-	.	po-	.	we-	.	ty	.
=7	=7	=7	=7	=7	=7	=7	=7	=7	=7	=7	=7	=7	=7	=7	=7	=7	=7	=7	=7	=7	=7	=7	=7	=7	=7
4D/	8	1ryy	1ryy	4B\	swe	.	-stchniey	.	-szar-	.	-stchniey	.	ser-	.	4dd\	swe	.	-ſtchniey	.	-ſzar-	.	-ſtchniey	.	ser-	.
4BB/	#	.	.	4B\	Ku	.	do	.	-pa-	.	do	.	-ce	.	4dd\	Ku	.	do	.	-pa-	.	do	.	-ce	.
2F#\	5 #	.	.	4.B\	me-	.	nie-	.	-ne	.	nie-	.	mo-	.	2cc#X\	me-	.	nie-	.	-ne,	.	nie-	.	mo-	.
.	.	.	.	8A#X/	.	.	.	.	.	.	.	.	-ie	.	.	.	.	.	.	.	.	.	.	.	.
=8	=8	=8	=8	=8	=8	=8	=8	=8	=8	=8	=8	=8	=8	=8	=8	=8	=8	=8	=8	=8	=8	=8	=8	=8	=8
2BB/	5 #	1ryy	1ryy	2B\	-mu	.	-go,	.	zy-	.	-go	.	ſkon-	.	2dd#X,>\	-mu	.	-go,	.	Zy-	.	-go	.	-ie	.
2GG/	8 x	.	.	2B\	za-	.	iuz	.	-ły	.	iuz	.	-czy-	.	2gg\	Ża-	.	iuz	.	-ły	.	iuz	.	ſkon-	.
=9	=9	=9	=9	=9	=9	=9	=9	=9	=9	=9	=9	=9	=9	=9	=9	=9	=9	=9	=9	=9	=9	=9	=9	=9	=9
4AA/	.	1ryy	1ryy	4A/	-lu	.	U-	.	star-	.	u-	.	-ło	.	4ff#\	-lu	.	u-	.	star-	.	u-	.	-czy-	.
4AA/	.	.	.	4G/	wiel-	.	-mar-	.	-ga-	.	-mar-	.	dni	.	4ee\	wiel-	.	-mar-	.	-ga-	.	-mar-	.	-lo	.
2BB/	4	.	.	2F#X/	-kie-	.	-łe-	.	.	.	-łe-	.	two-	.	(>4.ee\	-kie-	.	-łe-	.	.	.	-łe-	.	dni	.
.	3	.	.	.	.	.	.	.	.	.	.	.	.	.	8dd#X\)	.	.	.	.	.	.	.	.	two-	.
=10	=10	=10	=10	=10	=10	=10	=10	=10	=10	=10	=10	=10	=10	=10	=10	=10	=10	=10	=10	=10	=10	=10	=10	=10	=10
1E	.	1ryy	1ryy	1G#X	-mu	.	-go	.	-ne	.	-go	.	-ie	.	1ee	-mu	.	-go	.	-ne	.	-go	.	-ie	.
=:|!	=:|!	=:|!	=:|!	=:|!	=:|!	=:|!	=:|!	=:|!	=:|!	=:|!	=:|!	=:|!	=:|!	=:|!	=:|!	=:|!	=:|!	=:|!	=:|!	=:|!	=:|!	=:|!	=:|!	=:|!	=:|!
*-	*-	*-	*-	*-	*-	*-	*-	*-	*-	*-	*-	*-	*-	*-	*-	*-	*-	*-	*-	*-	*-	*-	*-	*-	*-
!!!system-decoration: [(g1)][(g2)]g3
!!!RDF**kern: > = above
!!!RDF**kern: < = below
!!!ENC: Berenika Jozajtis
!!!END: 2021-01-05
!!!EED: Jędrzej Mróz
!!!EEV: 2022-01-03
!!!YEC: Copyright 2022 Narodowy Instytut Fryderyka Chopina (https://polishscores.org)
!!!YEM: License CC-BY-4.0 (https://creativecommons.org/licenses/by/4.0)
